!!!COM: Bach, Johann Sebastian
!!!OPR: Joh. Seb. Bachs vierstimmige Choralgesänge
!!!XEN: Four-part Chorales
!!!OTL: 104. Jesu, Jesu, du bist mein
!!!SCT: BWV 357
!!!SCA: Thematisch-systematisches Verzeichnis der musikalischen Werke Johann Sebastian Bach: Bach-Werke-Verzeichnis (Schmieder)
!!!YOR: Bach Gesellschaft Edition xxxix
!!!ENC: Steven Rasmussen
!!!CDT: 1685/3//-1750/7/28/
!!!OCY: Deutschland
!!!YEC: Copyright (c) 1994, 2000 Center for Computer Assisted Research in the Humanities
!!!YEM: Rights to all derivative editions reserved
!!!YEN: United States of America
**kern	**kern	**kern	**kern	**silbe
*I:[BASSO]	*I:[TENORE]	*I:[ALTO]	*I:[SOPRANO]	*I:[SOPRANO]
*clefF4	*clefGv2	*clefG2	*clefG2	*
*k[b-e-]	*k[b-e-]	*k[b-e-]	*k[b-e-]	*
*g:	*g:	*g:	*g:	*
*M4/4	*M4/4	*M4/4	*M4/4	*
=1-	=1-	=1-	=1-	=1-
4C	4c	4e-	4.g	Je-
4E-	4c	4g	.	.
.	.	.	8cc	-su,
4D	4d	4f	4bn	Je-
4C	4e-	4g	4cc	-su,
=2	=2	=2	=2	=2
4BBn	4d	4g	4dd	du
4C	4c	4g	8ee-L	bist
.	.	.	8ddJ	.
2GG;	(4c	2g;	2dd;	mein,
.	4Bn;)	.	.	.
=3	=3	=3	=3	=3
4C	4c	4g	4ee-	weil
8cL	8e-L	4g	4cc	ich
8B-J	8dJ	.	.	.
4.A-	4c	8fL	4ff	muss
.	.	8gJ	.	.
.	4c	4a-	4ee-	auf
8G	.	.	.	.
=4	=4	=4	=4	=4
4F	4c	8a-L	4dd	Er-
.	.	8dJ	.	.
4G	4Bn	8gL	8.ddL	-den
.	.	8fJ	.	.
.	.	.	16ee-Jk	.
4C	4G	4e-	4cc	wal-
4C;	4G;	4e-;	4cc;	-len;
=5	=5	=5	=5	=5
4c	4c	8e-L	4g	lass
.	.	8fJ	.	.
4B-	4d	4g	4g	mich
4A-	4e-	8cL	4cc	ganz
.	.	8dJ	.	.
8GL	4B-	4e-	4b-	dein
8FJ	.	.	.	.
=6	=6	=6	=6	=6
8E-L	4B-	4f	4a-	ei-
8DJ	.	.	.	.
4E-	4B-	4e-	8gL	-gen
.	.	.	8fJ	.
2BB-;	2B-;	2d;	2f;	sein,
=7	=7	=7	=7	=7
8DL	4B-	4.f	4b-	lass
8BB-J	.	.	.	.
4E-	4B-	.	4g	mein
.	.	8e-	.	.
4AA-	8cL	8e-L	8ccL	Le-
.	8B-J	8fJ	8ddJ	.
8GGL	8B-L	8gL	4ee-	-ben
8AA-J	8cJ	8fJ	.	.
=8	=8	=8	=8	=8
8BB-L	4B-	4e-	4g	dir
8AA-J	.	.	.	.
4BB-	8.B-L	4d	8fL	ge-
.	.	.	8e-J	.
.	16A-Jk	.	.	.
4EE-	4G	4B-	4e-	-fal-
4EE-;	4G;	4B-;	4e-;	-len.
=9	=9	=9	=9	=9
8E-L	4B-	4e-	4.g	Dir
8DJ	.	.	.	.
8E-L	8cL	4e-	.	.
8CJ	8e-J	.	8a	will
8DL	4d	4f	4bn	ich
8A-J	.	.	.	.
8GL	4d	4g	4b	mich
8FJ	.	.	.	.
=10	=10	=10	=10	=10
8E-L	4e-	4g	4cc	ganz
8CJ	.	.	.	.
8FFL	4f	4a-	4dd	er-
8FJ	.	.	.	.
8GL	4d	4g	4bn	-ge-
8GGJ	.	.	.	.
(8GL	4d;	4g;	4b;	-ben,
8F;J)	.	.	.	.
=11	=11	=11	=11	=11
8E-L	4e-	4g	4cc	und
8DJ	.	.	.	.
8CL	4d	4g	4dd	im
8BBnJ	.	.	.	.
8CL	8cL	4g	4ee-	To-
8GJ	8dJ	.	.	.
8cL	8e-L	4g	4cc	-de
8B-J	8dJ	.	.	.
=12	=12	=12	=12	=12
4A-	4c	4f	4ff	an
8GL	4c	4g	4ee-	dir
8FJ	.	.	.	.
4G	4c	4g	4dd	kle-
4GG;	4Bn;	4g;	4dd;	-ben,
=13	=13	=13	=13	=13
4E-	4c	4g	4cc	dir
4C	4e-	4g	4g	ver-
4F	4c	(8g	4a-	-trau-
.	.	4f)	.	.
4G	4Bn	.	4g	-e
.	.	8e-	.	.
=14	=14	=14	=14	=14
4A-	8cL	8e-L	4.g	ich
.	8BnJ	8dJ	.	.
4A-	4c	4c	.	.
.	.	.	8f	al-
2G;	2B;	2d;	2g;	-lein,
=15	=15	=15	=15	=15
8E-L	4c	8gL	4cc	Je-
8DJ	.	8fJ	.	.
8E-L	4c	8gL	4g	-su,
8CJ	.	8e-J	.	.
8FL	4c	4f	8a-L	Je-
8GJ	.	.	8g	.
8A-L	4A-	4c	8fJ	.
8FJ	.	.	16e-LL	-su,
.	.	.	16dJJ	.
=16	=16	=16	=16	=16
4G	4G	4c	4e-	du
4GG	8.GL	4Bn	8dL	bist
.	.	.	8cJ	.
.	16FJk	.	.	.
2C;	2En;	2G;	2c;	mein.
==|!	==|!	==|!	==|!	==|!
*-	*-	*-	*-	*-
!!!RWG: Key is interpreted using the Humdrum key tool.
!!!URL-pdf: https://s9.imslp.org/files/imglnks/usimg/6/6b/IMSLP24489-PMLP09471-CCARH_Bach_Chorales.pdf#page=73 Musedata edition
!!!URL-pdf: https://s9.imslp.org/files/imglnks/usimg/7/7a/IMSLP04155-Bach_-_BGA_253-438.pdf#page=56 	Bach-Gesellschaft Ausgabe, Band 39 (pp.175-276) Leipzig: Breitkopf und Härtel, 1892. Plate B.W. XXXIX.
!!!END: 1994/07/08
!!!EMD: Converted from MuseData to Humdrum Dec 19, 2000, by Andreas Kornstaedt using muse2kern.
!!!EED: Craig Stuart Sapp
!!!EEV: 2024/03/31
!!!ONB: Some non-unicode characters
!!!filter-keyboard: satb2gs
